icons/linear-new-people-tie-business备份.svg

<svg xmlns="http://www.w3.org/2000/svg" width="32px" height="32px" viewBox="0 0 32 32" version="1.1">
    <title>linear-new-people-tie-business&#22791;&#20221;</title>
    <g id="linear-new-people-tie-business&#22791;&#20221;" stroke-width="1" fill-rule="evenodd">
        <path d="M16,2 C19.8659932,2 23,5.13400675 23,9 C23,12.8659932 19.8659932,16 16,16 C12.1340068,16 9,12.8659932 9,9 C9,5.13400675 12.1340068,2 16,2 Z M16,4 C13.2385763,4 11,6.23857625 11,9 C11,11.7614237 13.2385763,14 16,14 C18.7614237,14 21,11.7614237 21,9 C21,6.23857625 18.7614237,4 16,4 Z M23,18 C25.7614237,18 28,20.2385763 28,23 L28,28 C28,28.5522847 27.5522847,29 27,29 C26.4477153,29 26,28.5522847 26,28 L26,23 C26,21.3431458 24.6568542,20 23,20 L18.152,20 L18.9899495,25.8585786 C19.0344629,26.1701725 18.9296738,26.4845398 18.7071068,26.7071068 L16.7071068,28.7071068 C16.3165825,29.0976311 15.6834175,29.0976311 15.2928932,28.7071068 L13.2928932,26.7071068 C13.0703262,26.4845398 12.9655371,26.1701725 13.0100505,25.8585786 L13.847,20 L9,20 C7.34314575,20 6,21.3431458 6,23 L6,28 C6,28.5522847 5.55228475,29 5,29 C4.44771525,29 4,28.5522847 4,28 L4,23 C4,20.2385763 6.23857625,18 9,18 L23,18 Z M16.133,20 L15.866,20 L15.06,25.645 L16,26.585 L16.939,25.645 L16.133,20 Z" id="&#24418;&#29366;" fill-rule="nonzero" />
    </g>
</svg>

<svg xmlns="http://www.w3.org/2000/svg" viewBox="0 0 32 32"><path fill="currentColor" d="M16 2a7 7 0 1 1 0 14 7 7 0 0 1 0-14m0 2a5 5 0 1 0 0 10 5 5 0 0 0 0-10m7 14a5 5 0 0 1 5 5v5a1 1 0 0 1-2 0v-5a3 3 0 0 0-3-3h-4.848l.838 5.859a1 1 0 0 1-.283.848l-2 2a1 1 0 0 1-1.414 0l-2-2a1 1 0 0 1-.283-.848L13.847 20H9a3 3 0 0 0-3 3v5a1 1 0 0 1-2 0v-5a5 5 0 0 1 5-5zm-6.867 2h-.267l-.806 5.645.94.94.939-.94z"/></svg>
